public/images/logos/logo-bareminerals.svg

<svg width="430" height="49" viewBox="0 0 430 49" fill="none" xmlns="http://www.w3.org/2000/svg">
<g clip-path="url(#clip0_7_242)">
<path d="M20.8277 15.6766C15.6399 15.6766 9.04536 19.7102 9.04536 30.0509C9.04536 38.8889 12.6899 45.8573 20.8277 45.8573C28.4547 45.8573 33.3355 39.9634 33.3355 30.3893C33.3355 21.6396 29.174 15.6766 20.8277 15.6766ZM0.000244141 44.809H5.18777V3.17345H0.000244141V0.0304718H9.24863V20.0928H9.39842C12.0307 14.9295 15.9128 12.5348 21.7024 12.5348C31.5524 12.5348 37.415 19.4894 37.415 30.3893C37.415 46.0327 28.0412 49.0002 22.1062 49.0002C16.166 49.0002 12.5568 47.0544 9.39842 41.3678H9.24863V47.9522H0.000244141V44.809ZM315.192 44.809H321.204V16.7248H315.192V13.5817H325.263V20.4658H325.414C326.993 15.3038 330.979 12.5348 335.565 12.5348C336.47 12.5348 339.388 12.6178 342.029 14.9379L340.075 17.6555C338.145 16.3298 336.699 16.1267 335.866 16.1267C328.721 16.1267 325.263 20.6232 325.263 28.7805V44.809H331.211V47.9522H315.192V44.809ZM154.213 3.17345H149.385V0.0304718H161.584L178.05 41.8912H178.201L194.667 0.0304718H206.864V3.17345H202.036V44.809H206.864V47.9522H192.704V44.809H197.977V3.17345H197.601L179.931 47.9522H176.321L158.651 3.17345H158.275V44.809H163.546V47.9522H149.385V44.809H154.213V3.17345ZM403.063 36.1892H406.219C406.522 43.8962 412.541 45.8573 417.235 45.8573C423.026 45.8573 425.899 42.786 425.899 38.4166C425.899 34.8925 423.967 33.198 417.722 32.2258L412.838 31.4773C406.821 30.4293 403.441 27.5085 403.441 22.1216C403.441 16.1157 408.705 12.2313 415.247 12.2313C420.06 12.2313 423.428 13.8771 425.31 17.8432H425.458V13.2779H428.615V24.7826H425.458V23.0137C425.458 17.1777 420.185 15.3728 415.758 15.3728C410.6 15.3728 407.498 18.2162 407.498 22.0538C407.498 26.0945 410.504 27.3622 414.342 27.9601L419.981 28.8579C427.123 29.9804 430 33.4729 430 38.36C430 44.7607 424.815 49.0002 417.593 49.0002C412.478 49.0002 408.593 46.9785 406.297 42.7887H406.37H406.219V47.9522H403.063V36.1892ZM220.358 6.10935C222.054 6.10935 223.429 4.74235 223.429 3.05474C223.429 1.36713 222.054 -9.55309e-05 220.358 -9.55309e-05C218.665 -9.55309e-05 217.291 1.36713 217.291 3.05474C217.291 4.74235 218.665 6.10935 220.358 6.10935ZM267.791 44.809V26.8264C267.791 17.0989 264.332 12.5348 256.136 12.5348C250.573 12.5348 246.814 15.0042 244.784 19.6427H244.631V13.5817H234.555V16.7248H240.574V44.809H223.94V13.5817H214.834V16.7248H219.881V44.809H213.413V47.9522H250.646V44.809H244.631V30.1945C244.631 21.2143 248.843 15.6766 254.86 15.6766C260.799 15.6766 263.732 19.194 263.732 26.8264V44.809H258.687V47.9522H273.357V44.809H267.791ZM68.0918 31.9235C68.0918 39.5559 64.7087 45.8504 56.5128 45.8504C51.249 45.8504 47.8659 43.3563 47.8659 38.4927C47.8659 32.7506 51.6248 30.8684 60.9491 30.8684C63.2045 30.8684 65.5358 31.0174 68.0918 31.0935V31.9235ZM103.128 12.5348C98.5416 12.5348 94.5563 15.3038 92.9772 20.4658H92.8274V13.5817H82.7519V16.7248H88.7671V44.809H85.8657V44.8023H75.4543C72.3177 44.8023 72.1527 42.4504 72.1527 40.0119V25.4731C72.1527 18.2147 69.1449 12.528 58.6178 12.528C51.7034 12.528 46.4409 15.9458 45.3474 22.8395C46.2675 22.8395 48.4771 22.8409 49.4866 22.8409C50.508 18.6651 53.429 15.6697 58.7684 15.6697C64.4076 15.6697 68.0918 17.324 68.0918 24.882V27.7254H59.8966C48.6173 27.7254 43.805 30.9885 43.805 38.2689C43.805 45.4527 48.4669 48.9934 55.6101 48.9934C61.5505 48.9934 65.9866 46.897 68.3929 40.0877H68.5435C68.5435 40.0877 68.171 44.4668 70.0309 46.3172C71.9847 48.2615 74.6933 47.948 76.4348 47.948C77.4373 47.948 80.4083 47.9474 82.7519 47.9466V47.9522H100.196V44.809H92.8274V28.7805C92.8274 20.6232 96.2859 16.1267 103.429 16.1267C104.263 16.1267 105.706 16.3298 107.637 17.6555L109.591 14.9379C106.949 12.6178 104.031 12.5348 103.128 12.5348ZM368.836 31.9235C368.836 39.5559 365.452 45.8504 357.256 45.8504C351.994 45.8504 348.609 43.3563 348.609 38.4927C348.609 32.7506 352.366 30.8684 361.692 30.8684C363.948 30.8684 366.279 31.0174 368.836 31.0935V31.9235ZM390.515 44.809V0.0304718H379.99V3.17345H386.456V44.809H386.333V44.8023H376.196C373.061 44.8023 372.896 42.4504 372.896 40.0119V25.4731C372.896 18.2147 369.887 12.528 359.36 12.528C352.445 12.528 347.183 15.9458 346.09 22.8395C347.011 22.8395 349.222 22.8409 350.229 22.8409C351.252 18.6651 354.171 15.6697 359.511 15.6697C365.149 15.6697 368.836 17.324 368.836 24.882V27.7254H360.641C349.359 27.7254 344.546 30.9885 344.546 38.2689C344.546 45.4527 349.209 48.9934 356.352 48.9934C362.295 48.9934 366.728 46.897 369.135 40.0877H369.288C369.288 40.0877 368.914 44.4668 370.773 46.3172C372.726 48.2615 375.436 47.948 377.178 47.948C377.655 47.948 378.977 47.948 379.99 47.9474V47.9522H396.53V44.809H390.515ZM115.776 27.0418C117.007 19.604 121.546 15.6766 127.554 15.6766C134.245 15.6766 138.451 19.3029 139.456 27.1123C139.485 27.3331 139.508 27.8857 139.508 27.8857H115.709C115.709 27.8857 115.669 27.695 115.776 27.0418ZM127.477 45.8573C120.117 45.8573 115.524 39.7272 115.524 31.0287H143.482C143.482 20.1772 137.17 12.5348 128.08 12.5348C117.439 12.5348 111.464 19.6732 111.464 30.6904C111.464 41.372 116.999 49.0002 127.704 49.0002C135.24 49.0002 141.131 45.2414 142.874 37.5496H138.854C136.934 43.2099 132.919 45.8573 127.477 45.8573ZM281.96 27.0418C283.19 19.604 287.73 15.6766 293.736 15.6766C300.43 15.6766 304.633 19.3029 305.64 27.1123C305.669 27.3331 305.69 27.8857 305.69 27.8857H281.891C281.891 27.8857 281.851 27.695 281.96 27.0418ZM293.659 45.8573C286.299 45.8573 281.707 39.7272 281.707 31.0287H309.666C309.666 20.1772 303.981 12.535 294.263 12.535C283.623 12.535 277.648 19.6732 277.648 30.6904C277.648 41.372 283.18 49.0002 293.889 49.0002C301.422 49.0002 307.316 45.2414 309.058 37.5496H305.038C303.116 43.2099 299.099 45.8573 293.659 45.8573Z" fill="white"/>
</g>
<defs>
<clipPath id="clip0_7_242">
<rect width="430" height="49" fill="white"/>
</clipPath>
</defs>
</svg>

<svg xmlns="http://www.w3.org/2000/svg" width="430" height="49" fill="none" viewBox="0 0 430 49"><g clip-path="url(#a)"><path fill="#fff" d="M20.828 15.677c-5.188 0-11.783 4.033-11.783 14.374 0 8.838 3.645 15.806 11.783 15.806 7.627 0 12.508-5.894 12.508-15.468 0-8.75-4.162-14.712-12.508-14.712M0 44.809h5.188V3.173H0V.03h9.25v20.063h.15c2.632-5.163 6.514-7.558 12.303-7.558 9.85 0 15.713 6.954 15.713 17.854C37.415 46.033 28.041 49 22.106 49c-5.94 0-9.55-1.946-12.708-7.632h-.15v6.584H0zm315.192 0h6.012V16.725h-6.012v-3.143h10.071v6.884h.151c1.579-5.162 5.565-7.931 10.151-7.931.905 0 3.823.083 6.464 2.403l-1.954 2.717c-1.93-1.325-3.376-1.528-4.209-1.528-7.145 0-10.603 4.496-10.603 12.654v16.028h5.948v3.143h-16.019zM154.213 3.173h-4.828V.03h12.199l16.466 41.861h.151L194.667.031h12.197v3.142h-4.828V44.81h4.828v3.143h-14.16V44.81h5.273V3.173h-.376l-17.67 44.78h-3.61l-17.67-44.78h-.376V44.81h5.271v3.143h-14.161V44.81h4.828zm248.85 33.016h3.156c.303 7.707 6.322 9.668 11.016 9.668 5.791 0 8.664-3.071 8.664-7.44 0-3.525-1.932-5.219-8.177-6.191l-4.884-.749c-6.017-1.048-9.397-3.968-9.397-9.355 0-6.006 5.264-9.89 11.806-9.89 4.813 0 8.181 1.645 10.063 5.611h.148v-4.565h3.157v11.505h-3.157v-1.77c0-5.835-5.273-7.64-9.7-7.64-5.158 0-8.26 2.843-8.26 6.68 0 4.041 3.006 5.31 6.844 5.907l5.639.898C427.123 29.98 430 33.473 430 38.36c0 6.4-5.185 10.64-12.407 10.64-5.115 0-9-2.022-11.296-6.211h.073-.151v5.163h-3.156zM220.358 6.11a3.06 3.06 0 0 0 3.071-3.054A3.063 3.063 0 0 0 220.358 0a3.06 3.06 0 0 0-3.067 3.055 3.06 3.06 0 0 0 3.067 3.054m47.433 38.7V26.826c0-9.727-3.459-14.291-11.655-14.291-5.563 0-9.322 2.47-11.352 7.108h-.153v-6.061h-10.076v3.143h6.019v28.084H223.94V13.582h-9.106v3.143h5.047v28.084h-6.468v3.143h37.233V44.81h-6.015V30.195c0-8.98 4.212-14.518 10.229-14.518 5.939 0 8.872 3.517 8.872 11.15v17.982h-5.045v3.143h14.67V44.81zm-199.7-12.885c0 7.632-3.382 13.926-11.578 13.926-5.264 0-8.647-2.494-8.647-7.357 0-5.742 3.759-7.625 13.083-7.625 2.256 0 4.587.15 7.143.226zm35.037-19.39c-4.586 0-8.572 2.77-10.15 7.932h-.15v-6.884H82.751v3.143h6.015v28.084h-2.901v-.007H75.454c-3.136 0-3.301-2.352-3.301-4.79V25.473c0-7.258-3.008-12.945-13.535-12.945-6.915 0-12.177 3.418-13.27 10.312h4.139c1.021-4.175 3.942-7.17 9.281-7.17 5.64 0 9.324 1.654 9.324 9.212v2.843h-8.195c-11.28 0-16.092 3.263-16.092 10.544 0 7.184 4.662 10.724 11.805 10.724 5.94 0 10.377-2.096 12.783-8.905h.15s-.372 4.379 1.488 6.23c1.954 1.944 4.662 1.63 6.404 1.63l6.317-.001v.005h17.444V44.81h-7.369V28.781c0-8.158 3.459-12.654 10.602-12.654.834 0 2.277.203 4.208 1.529l1.954-2.718c-2.642-2.32-5.56-2.403-6.463-2.403m265.708 19.39c0 7.632-3.384 13.926-11.58 13.926-5.262 0-8.647-2.494-8.647-7.357 0-5.742 3.757-7.625 13.083-7.625 2.256 0 4.587.15 7.144.226zm21.679 12.885V.03H379.99v3.143h6.466V44.81h-.123v-.007h-10.137c-3.135 0-3.3-2.352-3.3-4.79v-14.54c0-7.258-3.009-12.945-13.536-12.945-6.915 0-12.177 3.418-13.27 10.312h4.139c1.023-4.175 3.942-7.17 9.282-7.17 5.638 0 9.325 1.654 9.325 9.212v2.843h-8.195c-11.282 0-16.095 3.263-16.095 10.544 0 7.184 4.663 10.724 11.806 10.724 5.943 0 10.376-2.096 12.783-8.905h.153s-.374 4.379 1.485 6.23c1.953 1.944 4.663 1.63 6.405 1.63h2.812v.004h16.54V44.81zM115.776 27.042c1.231-7.438 5.77-11.365 11.778-11.365 6.691 0 10.897 3.626 11.902 11.435.029.221.052.774.052.774h-23.799s-.04-.191.067-.844m11.701 18.815c-7.36 0-11.953-6.13-11.953-14.828h27.958c0-10.852-6.312-18.494-15.402-18.494-10.641 0-16.616 7.138-16.616 18.155 0 10.682 5.535 18.31 16.24 18.31 7.536 0 13.427-3.759 15.17-11.45h-4.02c-1.92 5.66-5.935 8.307-11.377 8.307M281.96 27.042c1.23-7.438 5.77-11.365 11.776-11.365 6.694 0 10.897 3.626 11.904 11.435.029.221.05.774.05.774h-23.799s-.04-.191.069-.844m11.699 18.815c-7.36 0-11.952-6.13-11.952-14.828h27.959c0-10.852-5.685-18.494-15.403-18.494-10.64 0-16.615 7.138-16.615 18.155 0 10.682 5.532 18.31 16.241 18.31 7.533 0 13.427-3.759 15.169-11.45h-4.02c-1.922 5.66-5.939 8.307-11.379 8.307"/></g><defs><clipPath id="a"><path fill="#fff" d="M0 0h430v49H0z"/></clipPath></defs></svg>
